icons/baby_male_0306m.svg

<svg width="48" height="48" viewBox="0 0 48 48" fill="none" xmlns="http://www.w3.org/2000/svg">
<path fill-rule="evenodd" clip-rule="evenodd" d="M17 6C16.4477 6 16 6.44772 16 7C16 7.55228 16.4477 8 17 8H18.5858L15.4765 11.1093C14.4957 10.4108 13.2958 10 12 10C8.68629 10 6 12.6863 6 16C6 19.3137 8.68629 22 12 22C15.3137 22 18 19.3137 18 16C18 14.7042 17.5892 13.5043 16.8907 12.5235L20 9.41421V11C20 11.5523 20.4477 12 21 12C21.5523 12 22 11.5523 22 11V7C22 6.44772 21.5523 6 21 6H17ZM12 20C14.2091 20 16 18.2091 16 16C16 13.7909 14.2091 12 12 12C9.79086 12 8 13.7909 8 16C8 18.2091 9.79086 20 12 20Z" fill="black"/>
<path fill-rule="evenodd" clip-rule="evenodd" d="M42 22.5C42 26.0899 39.0899 29 35.5 29C31.9101 29 29 26.0899 29 22.5C29 18.9101 31.9101 16 35.5 16C39.0899 16 42 18.9101 42 22.5ZM40 22.5C40 24.9853 37.9853 27 35.5 27C33.0147 27 31 24.9853 31 22.5C31 20.0147 33.0147 18 35.5 18C37.9853 18 40 20.0147 40 22.5Z" fill="black"/>
<path fill-rule="evenodd" clip-rule="evenodd" d="M30.6606 30.0298C29.761 29.5222 28.748 29.2578 27.7181 29.2633H22.4465L22.5014 30.3153C22.7634 35.3439 22.8943 38.0257 22.9597 39.4495C22.9924 40.1616 23.0087 40.5574 23.0167 40.774C23.0207 40.8823 23.0226 40.9444 23.0235 40.9781L23.0242 41.0064L23.0243 42H27.4159C29.1133 41.9972 30.4454 41.2814 31.5421 40.3344C31.6386 40.4754 31.743 40.6247 31.8482 40.7639C32.1852 41.2097 32.842 42 33.859 42H38.8596C40.7299 42 42 40.2766 42 38.6847C42 36.9311 40.5817 35.3695 38.7398 35.3695H36.092C35.2782 34.9613 34.6093 34.1739 33.793 33.1319C33.7424 33.0673 33.6911 33.0016 33.6391 32.9349C32.8635 31.9406 31.9329 30.7476 30.6606 30.0298ZM29.6777 31.7716C29.0789 31.4337 28.4074 31.2593 27.7268 31.2633L27.7209 31.2633L24.5533 31.2633C24.7793 35.6223 24.8967 38.031 24.9576 39.3578C24.9691 39.6083 24.9786 39.8204 24.9865 40H27.4125C28.7706 39.9975 29.8501 39.297 30.9385 38.1412L31.654 37.3813L32.3826 38.1287C32.6097 38.3617 32.8101 38.6448 32.9707 38.8788C33.0179 38.9476 33.0624 39.0132 33.1052 39.0762C33.2237 39.2509 33.3292 39.4064 33.4437 39.5579C33.7112 39.9118 33.8449 39.9838 33.8703 39.9975C33.8727 39.9988 33.8741 39.9996 33.8746 40H38.8596C39.403 40 40 39.4083 40 38.6847C40 37.9633 39.4061 37.3695 38.7398 37.3695H35.6694L35.4821 37.2899C34.0394 36.6771 33.0396 35.4134 32.2185 34.3652L32.1499 34.2775C31.2937 33.1841 30.5911 32.2869 29.6777 31.7716Z" fill="black"/>
<path fill-rule="evenodd" clip-rule="evenodd" d="M14.2 32.4002L12.25 35.0002H9.5C7.567 35.0002 6 36.5672 6 38.5002C6 40.4332 7.567 42.0002 9.5 42.0002H14C15.1017 42.0002 16.139 41.4815 16.8 40.6002L19.8 36.6002C20.9598 35.0538 20.6464 32.86 19.1 31.7002C17.5536 30.5404 15.3598 30.8538 14.2 32.4002ZM15.8 33.6002L13.25 37.0002H9.5C8.67157 37.0002 8 37.6718 8 38.5002C8 39.3286 8.67157 40.0002 9.5 40.0002H14C14.4721 40.0002 14.9167 39.7779 15.2 39.4002L18.2 35.4002C18.6971 34.7375 18.5627 33.7973 17.9 33.3002C17.2373 32.8031 16.2971 32.9375 15.8 33.6002Z" fill="black"/>
</svg>

<svg
  xmlns="http://www.w3.org/2000/svg"
  width="24"
  height="24"
  viewBox="0 0 24 24"
  fill="none"
  stroke="currentColor"
  stroke-width="2"
  stroke-linecap="round"
  stroke-linejoin="round"
>
  <path
    fill-rule="evenodd"
    d="M17 6a1 1 0 1 0 0 2h1.586l-3.11 3.11a6 6 0 1 0 1.414 1.414L20 9.414V11a1 1 0 1 0 2 0V7a1 1 0 0 0-1-1zm-5 14a4 4 0 1 0 0-8 4 4 0 0 0 0 8"
    clip-rule="evenodd"
  />
  <path
    fill-rule="evenodd"
    d="M42 22.5a6.5 6.5 0 1 1-13 0 6.5 6.5 0 0 1 13 0m-2 0a4.5 4.5 0 1 1-9 0 4.5 4.5 0 0 1 9 0"
    clip-rule="evenodd"
  />
  <path
    fill-rule="evenodd"
    d="M30.66 30.03a5.9 5.9 0 0 0-2.942-.767h-5.271l.054 1.052c.262 5.029.393 7.71.459 9.135a160 160 0 0 1 .063 1.528l.001.028V42h4.392c1.697-.003 3.03-.719 4.126-1.666.097.141.201.29.306.43.337.446.994 1.236 2.011 1.236h5C40.73 42 42 40.277 42 38.685c0-1.754-1.418-3.315-3.26-3.315h-2.648c-.814-.409-1.483-1.196-2.299-2.238l-.154-.197c-.776-.994-1.706-2.187-2.978-2.905m-.982 1.742a3.9 3.9 0 0 0-1.951-.509h-3.174A1479 1479 0 0 1 24.986 40h2.427c1.358-.002 2.437-.703 3.526-1.859l.715-.76.729.748c.227.233.427.516.588.75l.134.197c.119.175.224.33.339.482.267.354.4.426.426.44l.005.002h4.985c.543 0 1.14-.592 1.14-1.315 0-.722-.594-1.315-1.26-1.315h-3.07l-.188-.08c-1.443-.613-2.442-1.877-3.264-2.925l-.068-.087c-.856-1.094-1.559-1.991-2.472-2.506"
    clip-rule="evenodd"
  />
  <path
    fill-rule="evenodd"
    d="M14.2 32.4 12.25 35H9.5a3.5 3.5 0 1 0 0 7H14a3.5 3.5 0 0 0 2.8-1.4l3-4a3.5 3.5 0 1 0-5.6-4.2m1.6 1.2L13.25 37H9.5a1.5 1.5 0 0 0 0 3H14a1.5 1.5 0 0 0 1.2-.6l3-4a1.5 1.5 0 0 0-2.4-1.8"
    clip-rule="evenodd"
  />
</svg>
